flaticon/arrows/move-1.svg

<svg xmlns="http://www.w3.org/2000/svg" width="32" height="32" viewBox="0 0 24 24">
    <path d="M8 4.800781C8.101562 4.800781 8.203125 4.761719 8.28125 4.683594L11.601562 1.363281 11.601562 8.800781C11.601562 9.019531 11.777344 9.199219 12 9.199219 12.222656 9.199219 12.398438 9.019531 12.398438 8.800781L12.398438 1.363281 15.71875 4.683594C15.796875 4.761719 15.898438 4.800781 16 4.800781 16.101562 4.800781 16.203125 4.761719 16.28125 4.683594 16.4375 4.527344 16.4375 4.273438 16.28125 4.117188L12.28125.117188C12.246094.078125 12.203125.0507812 12.152344.03125 12.054688-.0117188 11.945312-.0117188 11.847656.03125 11.796875.0507812 11.753906.078125 11.714844.117188L7.71875 4.117188C7.558594 4.273438 7.558594 4.527344 7.71875 4.683594 7.796875 4.761719 7.898438 4.800781 8 4.800781zM15.71875 19.316406L12.398438 22.632812 12.398438 15.199219C12.398438 14.980469 12.222656 14.800781 12 14.800781 11.777344 14.800781 11.601562 14.980469 11.601562 15.199219L11.601562 22.632812 8.28125 19.316406C8.125 19.160156 7.875 19.160156 7.71875 19.316406 7.558594 19.472656 7.558594 19.726562 7.71875 19.882812L11.714844 23.882812C11.753906 23.917969 11.796875 23.949219 11.847656 23.96875 11.894531 23.988281 11.949219 24 12 24 12.050781 24 12.105469 23.988281 12.152344 23.96875 12.203125 23.949219 12.246094 23.917969 12.28125 23.882812L16.28125 19.882812C16.4375 19.726562 16.4375 19.472656 16.28125 19.316406 16.125 19.160156 15.875 19.160156 15.71875 19.316406zM23.96875 12.152344C24.007812 12.054688 24.007812 11.945312 23.96875 11.847656 23.949219 11.796875 23.917969 11.753906 23.882812 11.714844L19.882812 7.71875C19.726562 7.558594 19.472656 7.558594 19.316406 7.71875 19.160156 7.875 19.160156 8.125 19.316406 8.28125L22.632812 11.601562 15.199219 11.601562C14.980469 11.601562 14.800781 11.777344 14.800781 12 14.800781 12.21875 14.980469 12.398438 15.199219 12.398438L22.632812 12.398438 19.316406 15.71875C19.160156 15.875 19.160156 16.125 19.316406 16.28125 19.394531 16.359375 19.496094 16.398438 19.601562 16.398438 19.703125 16.398438 19.804688 16.359375 19.882812 16.28125L23.882812 12.28125C23.917969 12.246094 23.949219 12.203125 23.96875 12.152344zM1.363281 12.398438L8.800781 12.398438C9.019531 12.398438 9.199219 12.21875 9.199219 12 9.199219 11.777344 9.019531 11.601562 8.800781 11.601562L1.363281 11.601562 4.683594 8.28125C4.839844 8.125 4.839844 7.875 4.683594 7.71875 4.527344 7.558594 4.273438 7.558594 4.117188 7.71875L.117188 11.714844C.078125 11.753906.0507812 11.796875.03125 11.847656-.0117188 11.945312-.0117188 12.054688.03125 12.152344.0507812 12.203125.078125 12.246094.117188 12.28125L4.117188 16.28125C4.195312 16.359375 4.296875 16.398438 4.398438 16.398438 4.503906 16.398438 4.605469 16.359375 4.683594 16.28125 4.839844 16.125 4.839844 15.875 4.683594 15.71875zM1.363281 12.398438"/>
</svg>

<svg xmlns="http://www.w3.org/2000/svg" width="32" height="32" viewBox="0 0 24 24">
    <path d="M8 4.8c.102 0 .203-.038.281-.116l3.32-3.32V8.8a.398.398 0 1 0 .797 0V1.363l3.32 3.32a.396.396 0 0 0 .563 0 .4.4 0 0 0 0-.566l-4-4a.326.326 0 0 0-.129-.086.376.376 0 0 0-.304 0 .37.37 0 0 0-.133.086l-3.996 4a.394.394 0 0 0 0 .567c.078.078.18.117.281.117zm0 0M15.719 19.316l-3.32 3.317v-7.434a.398.398 0 1 0-.797 0v7.434l-3.32-3.317a.396.396 0 0 0-.563 0 .394.394 0 0 0 0 .567l3.996 4A.432.432 0 0 0 12 24a.408.408 0 0 0 .281-.117l4-4a.4.4 0 0 0 0-.567.396.396 0 0 0-.562 0zm0 0M23.969 12.152a.41.41 0 0 0-.086-.437l-4-3.996a.394.394 0 0 0-.567 0 .396.396 0 0 0 0 .562l3.317 3.32h-7.434a.398.398 0 1 0 0 .797h7.434l-3.317 3.32a.399.399 0 1 0 .566.563l4-4a.373.373 0 0 0 .087-.129zm0 0M1.363 12.398h7.438a.398.398 0 1 0 0-.797H1.363l3.32-3.32a.396.396 0 0 0 0-.562.394.394 0 0 0-.566 0l-4 3.996a.37.37 0 0 0-.086.133.376.376 0 0 0 0 .304c.02.051.047.094.086.13l4 4a.399.399 0 0 0 .566-.563zm0 0"/>
</svg>
